src/stone-cut-rose.svg

<svg xmlns="http://www.w3.org/2000/svg" class="dibsvg-svg dibsvg-stone-cut-rose" viewBox="0 0 250 250">
    <path d="M232.4 61.5l-46.1-45.2L123.8.1 61.6 17.5 16.3 63.6.2 126.1l17.3 62.2 46.1 45.2 62.5 16.1 62.2-17.3 45.2-46.1 16.1-62.5-17.2-62.2zm-115.5 59H50.7c9.3-20.1 20-39.2 32.2-57.3l34 57.3zM91.3 59.6c21.5-1.6 43.2-1.6 65.1 0l-31.7 56.3-33.4-56.3zm25.7 69.9l-31.2 55.6c-12.9-18.7-24.1-37.2-33.7-55.6H117zm7.9 4.4l31.6 53.2c-20.7 1-41.3 1.1-61.5 0l29.9-53.2zm7.8-4.4h66.5c-8.8 18-19.9 36.8-33.2 56.2l-33.3-56.2zm-.3-9L163 66.1c12 18.1 22.8 36.3 32.5 54.4h-63.1zM91.6 50.7c9.8-13.5 20.4-26.5 31.9-39 10.2 12.9 19.8 25.8 28.9 38.8-20.4-1.3-40.7-1.2-60.8.2zm-47.5 62.9c-7-14.9-13-29.6-17.9-44.4C42 65.7 57.8 63 73.6 61.3c-11 16.6-20.8 34.1-29.5 52.3zm31.4 72.3c-16-1.3-31.8-3.3-47.4-5.9 4.8-15.7 10.3-30.9 16.5-45.6 8.8 17.1 19.2 34.2 30.9 51.5zM125 197c11.2 0 22.4-.3 33.7-.9-9.8 13.7-20.7 27.6-32.6 41.9-11.8-14.1-22.6-28-32.6-41.8 10.5.5 21 .8 31.5.8zm79.8-58.5c6.9 14 13.1 27.9 18.6 41.9-15.6 2.4-31.1 4.2-46.6 5.5 10.9-16.3 20.2-32.1 28-47.4zm-34.5-77.7c16.7 1.7 33.6 4.3 50.7 7.8-3.4 15.8-8.9 32.3-16.5 49.5C194.4 99 183 79.9 170.3 60.8zm-34.7-48.3l41.2 10.6-14.5 25.8c-8.4-12.2-17.3-24.3-26.7-36.4zm-52 34.2L70.4 24.4 110 13.3C100.6 24 91.8 35.1 83.6 46.7zM76.3 52c-14.2 1.5-28.2 3.6-42.2 6.3l28.6-29.2L76.3 52zm-38.8 68.5H11l10-38.9c4.7 12.9 10.2 25.9 16.5 38.9zm-.6 9c-5.6 13.1-10.7 26.6-15.2 40.4l-11.3-40.4h26.5zM80 195.3l-15.1 26.9-33.1-32.4c15.9 2.5 32 4.3 48.2 5.5zm6.7 6.6c8.4 11.7 17.5 23.4 27.2 35.3l-41.1-10.6 13.9-24.7zm78.7.3l13.8 23.3-40.4 11.2c9.6-11.6 18.4-23.1 26.6-34.5zm6.3-7c15-1.1 30.1-2.7 45.3-4.9L187 221l-15.3-25.8zm38.7-65.7H239l-10.3 40c-5.5-13.4-11.6-26.7-18.3-40zm29.1-9h-26.2c6.3-14.4 11.2-28.3 14.6-41.7l11.6 41.7zm-22.8-61.9c-15.3-2.9-30.5-5.2-45.7-6.7l13.8-24.6 31.9 31.3zm-33.9-33.2l-2.5-1.4 1.5.4 1 1z"/>
</svg>

<svg xmlns="http://www.w3.org/2000/svg" class="dibsvg-svg dibsvg-stone-cut-rose" viewBox="0 0 250 250">
    <path d="M232.4,61.5l-46.1-45.2L123.8,0.1L61.6,17.5L16.3,63.6L0.2,126.1l17.3,62.2l46.1,45.2l62.5,16.1l62.2-17.3l45.2-46.1 l16.1-62.5L232.4,61.5z M116.9,120.5H50.7c9.3-20.1,20-39.2,32.2-57.3L116.9,120.5z M91.3,59.6c21.5-1.6,43.2-1.6,65.1,0l-31.7,56.3 L91.3,59.6z M117,129.5l-31.2,55.6c-12.9-18.7-24.1-37.2-33.7-55.6H117z M124.9,133.9l31.6,53.2c-20.7,1-41.3,1.1-61.5,0 L124.9,133.9z M132.7,129.5h66.5c-8.8,18-19.9,36.8-33.2,56.2L132.7,129.5z M132.4,120.5L163,66.1c12,18.1,22.8,36.3,32.5,54.4 H132.4z M91.6,50.7c9.8-13.5,20.4-26.5,31.9-39c10.2,12.9,19.8,25.8,28.9,38.8C132,49.2,111.7,49.3,91.6,50.7z M44.1,113.6 c-7-14.9-13-29.6-17.9-44.4C42,65.7,57.8,63,73.6,61.3C62.6,77.9,52.8,95.4,44.1,113.6z M75.5,185.9c-16-1.3-31.8-3.3-47.4-5.9 c4.8-15.7,10.3-30.9,16.5-45.6C53.4,151.5,63.8,168.6,75.5,185.9z M125,197c11.2,0,22.4-0.3,33.7-0.9c-9.8,13.7-20.7,27.6-32.6,41.9 c-11.8-14.1-22.6-28-32.6-41.8C104,196.7,114.5,197,125,197z M204.8,138.5c6.9,14,13.1,27.9,18.6,41.9c-15.6,2.4-31.1,4.2-46.6,5.5 C187.7,169.6,197,153.8,204.8,138.5z M170.3,60.8c16.7,1.7,33.6,4.3,50.7,7.8c-3.4,15.8-8.9,32.3-16.5,49.5 C194.4,99,183,79.9,170.3,60.8z M135.6,12.5l41.2,10.6l-14.5,25.8C153.9,36.7,145,24.6,135.6,12.5z M83.6,46.7L70.4,24.4L110,13.3 C100.6,24,91.8,35.1,83.6,46.7z M76.3,52c-14.2,1.5-28.2,3.6-42.2,6.3l28.6-29.2L76.3,52z M37.5,120.5H11l10-38.9 C25.7,94.5,31.2,107.5,37.5,120.5z M36.9,129.5c-5.6,13.1-10.7,26.6-15.2,40.4l-11.3-40.4H36.9z M80,195.3l-15.1,26.9l-33.1-32.4 C47.7,192.3,63.8,194.1,80,195.3z M86.7,201.9c8.4,11.7,17.5,23.4,27.2,35.3l-41.1-10.6L86.7,201.9z M165.4,202.2l13.8,23.3 l-40.4,11.2C148.4,225.1,157.2,213.6,165.4,202.2z M171.7,195.2c15-1.1,30.1-2.7,45.3-4.9L187,221L171.7,195.2z M210.4,129.5H239 l-10.3,40C223.2,156.1,217.1,142.8,210.4,129.5z M239.5,120.5h-26.2c6.3-14.4,11.2-28.3,14.6-41.7L239.5,120.5z M216.7,58.6 c-15.3-2.9-30.5-5.2-45.7-6.7l13.8-24.6L216.7,58.6z M182.8,25.4l-2.5-1.4l1.5,0.4L182.8,25.4z"/>
</svg>
